X:98
T:Hommage \`a St\'ephane Landry
C:Philippe Bruneau
Z:robin.beech@mcgill.ca
M:2/4
L:1/16
K:Bm
|: F2BB B2BB | BFBd c3c | F2cc c2cc | cFce d3d | cdef gece | 
Bcde fdBc |1 dedB cdec | fgeg dfcf | :|2 dedB cdcF | BBdf b3b |:
bfdf Bdfb | bfdf Bdfb | bfdf Bcde | f4- f3f | efge c3c |
defd BFBc |1 dedB cdec | (3faf (3ege (3 dfd (3 cec :|2 dedB cdcF | BBdf b3b :|

